public/favicon.svg

<svg xmlns="http://www.w3.org/2000/svg" version="1.1" xmlns:xlink="http://www.w3.org/1999/xlink" width="256" height="256"><svg width="256" height="256" viewBox="0 0 256 256" fill="none" xmlns="http://www.w3.org/2000/svg">
<rect width="256" height="256" rx="22" fill="#AAFF01"></rect>
<path fill-rule="evenodd" clip-rule="evenodd" d="M161.928 71.352C161.928 70.6053 161.311 70 160.55 70H53.3775C52.6167 70 52 70.6053 52 71.352V176.536C52 177.283 52.6167 177.888 53.3775 177.888H119.224V184.648C119.224 185.395 119.841 186 120.602 186H203.254C204.015 186 204.632 185.395 204.632 184.648V103.529C204.632 102.782 204.015 102.177 203.254 102.177H161.928V71.352ZM161.928 102.177H120.602C119.841 102.177 119.224 102.782 119.224 103.529V177.888H160.55C161.311 177.888 161.928 177.283 161.928 176.536V102.177Z" fill="#030500"></path>
</svg><style>@media (prefers-color-scheme: light) { :root { filter: none; } }
@media (prefers-color-scheme: dark) { :root { filter: none; } }
</style></svg>

<svg xmlns="http://www.w3.org/2000/svg" viewBox="0 0 256 256"><svg xmlns="http://www.w3.org/2000/svg" fill="none" viewBox="0 0 256 256"><rect width="256" height="256" fill="#AAFF01" rx="22"/><path fill="#030500" fill-rule="evenodd" d="M162 71.4c0-.8-.7-1.4-1.4-1.4H53.4c-.8 0-1.4.6-1.4 1.4v105.1c0 .8.6 1.4 1.4 1.4h65.8v6.7c0 .8.6 1.4 1.4 1.4h82.7c.7 0 1.3-.6 1.3-1.4v-81c0-.8-.6-1.4-1.3-1.4h-41.4V71.4Zm0 30.8h-41.4c-.8 0-1.4.6-1.4 1.3V178h41.4c.7 0 1.3-.6 1.3-1.4v-74.3Z" clip-rule="evenodd"/></svg></svg>
